!!!Genre:	Khosid
!!!Mode:	Minor
!!!Listening/dance:	dance
!!!One_Mode:	yes
**kern
*I"P1
*clefG2
*k[b-e-]
*g:
*M2/4
*>A
8d
=1!|:
4g
8ccL
16b-L
16aJJ
=2
8gL
8a
8b-
8dJ
=3
16gLL
16g
16g
16gJJ
8ccL
16b-L
16aJJ
*>A1
=4
(16b-LL
16cc)
(16a
16b-JJ)
8gL
8dJ
*>A2
=5:|!
(16b-LL
16cc)
(16a
16b-JJ)
8gL
*>B
8fJ
=6!|:
16b-LL
16b-
16b-
16b-JJ
(16b-LL
16ccJ
8aJ)
=7
(16aLL
16b-J
8gJ)
(16gLL
16aJ
8fJ)
=8
16b-LL
16b-
16b-
16b-JJ
8ccL
16b-L
16aJJ
*>B1
=9
4g
(8ggL
8gJ)
*>B2
=10:|!
4.g
*>C
8f
=11!|:
8fL
8b-J
(16b-LL
16a)
(16a
16gJJ)
=12
8gL
8aJ
(16aLL
16g)
(16g
16fJJ)
=13
8fL
8b-J
(16b-LL
16a)
(16a
16gJJ)
=14
[4cc
16ccLL]
16b-
16a
16gJJ
=15
8fL
8b-J
(16b-LL
16a)
(16a
16gJJ)
=16
8gL
8aJ
(16aLL
16g)
(16g
16fJJ)
=17
(16ddLL
16cc)
(16cc
16b-JJ)
(8b-L
16aL
16gJJ)
*>C1
=18
(16aLL
16b-JJ)
4g
8f
*>C2
=19:|!
(16aLL
16b-JJ)
4g
==
*-
